X:1
T:Cherokee Shuffle
L:1/8
M:4/4
I:linebreak $
K:A
V:1 treble
V:1
 EF |: "A"A2 AB cd e2 | ABAF E2 EF | A2 AB cd e2 | "F#m"f2 ff f2 g2 |$ "D"a2 aa a2 f2 | "A"efed cB A2 |  "E"cBAc BAFE | "A"A6 z2 :|$
 z2 a2 g2 =g2 |: "D"f2 fg a2 f2 | "A"efed cB A2 | "D"f2 fg a2 f2 | "A"e4 c4 |  "D"f2 fg a2 f2 |$ 
"A"efed cBAB | cBAB cd e2 | "F#m"f2 ff f2 g2 | "D"a2 f2 "E"edcB | "A"A6 z2 :| %20

